X: 22832
T: Laride
R: hornpipe
M: 4/4
K: Edorian
B BA|d2 e2 B2 BA|dd ee BB BA|dc de BB BA|dd ee B2 (3BcB|
|:AA GA B2 EA|(3GAG EF GG EB|(3ABA GA B2 EA|1 (3GAG ED EA Bc:|2 (3GAG ED E||

